assets/monkeytype/original.svg

<svg viewBox="0 0 24 24" xmlns="http://www.w3.org/2000/svg" fill="#E2B714"><path d="m20 14.4a.8.8 0 1 1 0 1.6.8.8 0 0 1 0-1.6zm-11.2 0h4.8a.8.8 0 1 1 0 1.6h-4.8a.8.8 0 1 1 0-1.6zm-1.6-4.8a.8.8 0 0 1 .8.8v1.6a.8.8 0 1 1 -1.6 0v-1.6a.8.8 0 0 1 .8-.8zm-3.999.759a2.4 2.4 0 0 1 3.999-1.747 2.4 2.4 0 0 1 4 1.788v1.6a.8.8 0 1 1 -1.6 0v-1.6a.8.8 0 1 0 -1.6 0v1.6a.8.8 0 1 1 -1.6 0v-1.6a.8.8 0 1 0 -1.6 0v1.6a.8.8 0 1 1 -1.6 0v-1.6zm14.399 2.441v2.4a.8.8 0 1 1 -1.6 0v-2.4h-2.306c-.493 0-.894-.358-.894-.8s.401-.8.894-.8h6.212c.493 0 .894.358.894.8s-.401.8-.894.8zm-.8-4.8h3.2a.8.8 0 1 1 0 1.6h-3.2a.8.8 0 1 1 0-1.6zm-12.8 6.4h1.6a.8.8 0 1 1 0 1.6h-1.6a.8.8 0 1 1 0-1.6zm9.2-6.4h.4a.8.8 0 1 1 0 1.6h-.4a.8.8 0 1 1 0-1.6zm-11.6 6.4h-1.6v-5.6c0-2.208 1.792-4 4-4h16c2.208 0 4 1.792 4 4v6.4c0 2.208-1.792 4-4 4h-16c-2.208 0-4-1.792-4-4v-1.6h1.6v1.6a2.4 2.4 0 0 0 2.4 2.4h16a2.4 2.4 0 0 0 2.4-2.4v-6.4a2.4 2.4 0 0 0 -2.4-2.4h-16a2.4 2.4 0 0 0 -2.4 2.4z"/></svg>

<svg xmlns="http://www.w3.org/2000/svg" fill="#e2b714" viewBox="0 0 24 24"><path d="M20 14.4a.8.8 0 1 1 0 1.6.8.8 0 0 1 0-1.6m-11.2 0h4.8a.8.8 0 1 1 0 1.6H8.8a.8.8 0 1 1 0-1.6M7.2 9.6a.8.8 0 0 1 .8.8V12a.8.8 0 1 1-1.6 0v-1.6a.8.8 0 0 1 .8-.8m-3.999.759A2.4 2.4 0 0 1 7.2 8.612a2.4 2.4 0 0 1 4 1.788V12a.8.8 0 1 1-1.6 0v-1.6a.8.8 0 1 0-1.6 0V12a.8.8 0 1 1-1.6 0v-1.6a.8.8 0 1 0-1.6 0V12a.8.8 0 1 1-1.6 0v-1.6zM17.6 12.8v2.4a.8.8 0 1 1-1.6 0v-2.4h-2.306c-.493 0-.894-.358-.894-.8s.401-.8.894-.8h6.212c.493 0 .894.358.894.8s-.401.8-.894.8zM16.8 8H20a.8.8 0 1 1 0 1.6h-3.2a.8.8 0 1 1 0-1.6M4 14.4h1.6a.8.8 0 1 1 0 1.6H4a.8.8 0 1 1 0-1.6M13.2 8h.4a.8.8 0 1 1 0 1.6h-.4a.8.8 0 1 1 0-1.6M1.6 14.4H0V8.8c0-2.208 1.792-4 4-4h16c2.208 0 4 1.792 4 4v6.4c0 2.208-1.792 4-4 4H4c-2.208 0-4-1.792-4-4v-1.6h1.6v1.6A2.4 2.4 0 0 0 4 17.6h16a2.4 2.4 0 0 0 2.4-2.4V8.8A2.4 2.4 0 0 0 20 6.4H4a2.4 2.4 0 0 0-2.4 2.4z"/></svg>
